icons/8x-playback-speed-32.svg

<svg id="icons" xmlns="http://www.w3.org/2000/svg" viewBox="0 0 32 32"><path d="M15.7639,17.84785a5.25468,5.25468,0,0,0-2.90833-1.97219v-.057a4.63613,4.63613,0,0,0,1.30555-.72357,4.71817,4.71817,0,0,0,1.0069-1.07767,5.20937,5.20937,0,0,0,.63892-1.32019A4.804,4.804,0,0,0,16,11.22153a5.14236,5.14236,0,0,0-.4055-2.15629,4.98363,4.98363,0,0,0-1.19316-1.64582,5.29108,5.29108,0,0,0-1.75821-1.04994,6.40024,6.40024,0,0,0-4.28626,0A5.29108,5.29108,0,0,0,6.59866,7.41942,4.98363,4.98363,0,0,0,5.4055,9.06524,5.14236,5.14236,0,0,0,5,11.22153a4.804,4.804,0,0,0,.19306,1.47569A5.15756,5.15756,0,0,0,5.832,14.01741a4.86653,4.86653,0,0,0,.993,1.07767,4.33984,4.33984,0,0,0,1.31944.72357v.057A5.21873,5.21873,0,0,0,5.2639,17.834a5.99988,5.99988,0,0,0-.5666,5.8027,5.21878,5.21878,0,0,0,1.361,1.80212,6.373,6.373,0,0,0,2.0153,1.14925,7.35244,7.35244,0,0,0,4.8528,0,6.373,6.373,0,0,0,2.0153-1.14925,5.25725,5.25725,0,0,0,1.361-1.80212A5.6,5.6,0,0,0,16.8,21.23886,5.63062,5.63062,0,0,0,15.7639,17.84785ZM7.38605,14.38014a4.02382,4.02382,0,0,1-.9412-1.36863,4.38906,4.38906,0,0,1-.33136-1.7043A4.55332,4.55332,0,0,1,6.44377,9.564a4.12389,4.12389,0,0,1,.938-1.39777,4.48114,4.48114,0,0,1,6.23546,0,4.11848,4.11848,0,0,1,.938,1.39777,4.54587,4.54587,0,0,1,.33136,1.74317,4.34345,4.34345,0,0,1-.33352,1.7043,3.99748,3.99748,0,0,1-.939,1.36863,4.62128,4.62128,0,0,1-1.38158.89587A4.423,4.423,0,0,1,10.5,15.5a4.39767,4.39767,0,0,1-1.73237-.22507A4.55252,4.55252,0,0,1,7.38605,14.38014Zm7.86313,8.70395a4.8205,4.8205,0,0,1-1.04482,1.57586A4.73857,4.73857,0,0,1,12.57669,25.708,5.62,5.62,0,0,1,10.5,26.08039,5.62983,5.62983,0,0,1,8.42223,25.708a4.691,4.691,0,0,1-1.62659-1.04914,4.81112,4.81112,0,0,1-1.0459-1.57694A5.12917,5.12917,0,0,1,5.37521,21.097a5.03686,5.03686,0,0,1,.38964-1.97415A4.693,4.693,0,0,1,8.4503,16.514a5.84316,5.84316,0,0,1,4.0994,0,4.68465,4.68465,0,0,1,2.68545,2.60881,5.06016,5.06016,0,0,1,.38964,1.97415A5.12823,5.12823,0,0,1,15.24918,23.08409ZM28.96943,13l-3.78112,4.47464L29,21.98544V22H27.66576l-3.15069-3.72863L21.36438,22H20.01783l3.824-4.52536L20.06071,13h1.34648l3.10788,3.67791L27.62294,13Z"/><path fill="none" d="M0 0h32v32H0z"/></svg>

<svg xmlns="http://www.w3.org/2000/svg" viewBox="0 0 32 32"><path d="M15.764 17.848a5.255 5.255 0 0 0-2.908-1.972v-.057a4.636 4.636 0 0 0 1.305-.724 4.718 4.718 0 0 0 1.007-1.078 5.21 5.21 0 0 0 .639-1.32A4.804 4.804 0 0 0 16 11.222a5.142 5.142 0 0 0-.406-2.157 4.984 4.984 0 0 0-1.193-1.646 5.291 5.291 0 0 0-1.758-1.05 6.4 6.4 0 0 0-4.286 0 5.291 5.291 0 0 0-1.758 1.05 4.984 4.984 0 0 0-1.194 1.646A5.142 5.142 0 0 0 5 11.222a4.804 4.804 0 0 0 .193 1.475 5.158 5.158 0 0 0 .639 1.32 4.867 4.867 0 0 0 .993 1.078 4.34 4.34 0 0 0 1.32.724v.057a5.219 5.219 0 0 0-2.881 1.958 6 6 0 0 0-.567 5.803 5.219 5.219 0 0 0 1.361 1.802 6.373 6.373 0 0 0 2.016 1.15 7.352 7.352 0 0 0 4.852 0 6.373 6.373 0 0 0 2.016-1.15 5.257 5.257 0 0 0 1.36-1.802 5.6 5.6 0 0 0 .498-2.398 5.63 5.63 0 0 0-1.036-3.391zM7.386 14.38a4.024 4.024 0 0 1-.941-1.368 4.39 4.39 0 0 1-.332-1.705 4.553 4.553 0 0 1 .33-1.743 4.124 4.124 0 0 1 .939-1.398 4.481 4.481 0 0 1 6.235 0 4.118 4.118 0 0 1 .938 1.398 4.546 4.546 0 0 1 .332 1.743 4.343 4.343 0 0 1-.334 1.704 3.997 3.997 0 0 1-.939 1.37 4.621 4.621 0 0 1-1.382.895 4.423 4.423 0 0 1-1.732.224 4.398 4.398 0 0 1-1.732-.225 4.553 4.553 0 0 1-1.382-.895zm7.863 8.704a4.82 4.82 0 0 1-1.045 1.576 4.739 4.739 0 0 1-1.627 1.048 5.62 5.62 0 0 1-2.077.372 5.63 5.63 0 0 1-2.078-.372 4.691 4.691 0 0 1-1.626-1.05 4.811 4.811 0 0 1-1.046-1.576 5.13 5.13 0 0 1-.375-1.985 5.037 5.037 0 0 1 .39-1.974 4.693 4.693 0 0 1 2.685-2.609 5.843 5.843 0 0 1 4.1 0 4.685 4.685 0 0 1 2.685 2.609 5.06 5.06 0 0 1 .39 1.974 5.128 5.128 0 0 1-.376 1.987zM28.97 13l-3.78 4.475 3.81 4.51V22h-1.334l-3.15-3.729L21.363 22h-1.346l3.824-4.525L20.06 13h1.346l3.108 3.678L27.623 13z"/><path fill="none" d="M0 0h32v32H0z"/></svg>
